archdroid-icon-theme/Archdroid-Teal/apps/scalable/gnome-disks.svg

<svg xmlns="http://www.w3.org/2000/svg" fill="#009688" viewBox="0 0 48 48"><path d="m4 12h-4v28c0 2.21 1.79 4 4 4h28v-4h-28v-28m4 24h40v-8h-40v8zm4-6h4v4h-4v-4m-4-26v8h40v-8h-40m8 6h-4v-4h4v4zm-8 14h40v-8h-40v8m4-6h4v4h-4v-4"/></svg>

<?xml version="1.0" encoding="UTF-8" standalone="no"?>
<svg
   xmlns:dc="http://purl.org/dc/elements/1.1/"
   xmlns:cc="http://creativecommons.org/ns#"
   xmlns:rdf="http://www.w3.org/1999/02/22-rdf-syntax-ns#"
   xmlns:svg="http://www.w3.org/2000/svg"
   xmlns="http://www.w3.org/2000/svg"
   xmlns:sodipodi="http://sodipodi.sourceforge.net/DTD/sodipodi-0.dtd"
   xmlns:inkscape="http://www.inkscape.org/namespaces/inkscape"
   fill="#009688"
   width="48"
   height="48"
   viewBox="0 0 48 48"
   id="svg2"
   version="1.1"
   inkscape:version="0.91 r13725"
   sodipodi:docname="drive-multidisk.svg">
  <metadata
     id="metadata10">
    <rdf:RDF>
      <cc:Work
         rdf:about="">
        <dc:format>image/svg+xml</dc:format>
        <dc:type
           rdf:resource="http://purl.org/dc/dcmitype/StillImage" />
      </cc:Work>
    </rdf:RDF>
  </metadata>
  <defs
     id="defs8" />
  <sodipodi:namedview
     pagecolor="#ffffff"
     bordercolor="#666666"
     borderopacity="1"
     objecttolerance="10"
     gridtolerance="10"
     guidetolerance="10"
     inkscape:pageopacity="0"
     inkscape:pageshadow="2"
     inkscape:window-width="1366"
     inkscape:window-height="713"
     id="namedview6"
     showgrid="false"
     inkscape:snap-bbox="true"
     inkscape:bbox-nodes="true"
     inkscape:snap-page="true"
     inkscape:zoom="2.684000653874018"
     inkscape:cx="-14.65337243152825"
     inkscape:cy="-40.0796404324572"
     inkscape:window-x="0"
     inkscape:window-y="30"
     inkscape:window-maximized="1"
     inkscape:current-layer="svg2" />
  <path
     id="path4160"
     style="fill:#009688"
     d="M 4.000000000000001,12.00000000000001 0,12.00000000000001 0,40 c 0,2.21000000000001 1.789999999999999,4 4.000000000000001,4 l 28.000000000000007,0 0,-4 L 4,40 4,12.00000000000002 Z M 8,36 l 40,0 0,-8 -40,0 0,8 z m 4,-6 4,0 0,4 -4,0 0,-4 z M 8,4 8,12 48,12 48,4 8,4 Z m 8,6 -4,0 0,-4 4,0 0,4 z m -8,14 40,0 0,-8 -40,0 0,8 z m 4,-6 4,0 0,4 -4,0 0,-4 z"
     inkscape:connector-curvature="0" />
</svg>
